X: 4
T: Galtee Hunt, The
Z: Fernando Durbán Galnares
S: https://thesession.org/tunes/386#setting47675
R: hornpipe
M: 4/4
L: 1/8
K: Gmaj
|:(3DEF|"G"GFGB "C"AGED|"Am"cBcA "Em"BGED|"G"GABG "C"AGED|"Am"EAAG (3ABc BA|
"G"GABG "C"AGED|"Am"cBcd "C"ef (3gfe|"G"dBGB "Am"AGED|"G"EGGF G2:|
|:(3DEF|"G"GFGB d2d2|"C"(3efg fd ef/e/ d2|"C"e2d2 "G"g2d2|"C"edBc "G"dBGB|
"C"c2cB cegd|"G"B2BA BcdB|"Am"AGAB AGED|"C"gfgb agfe|
"G"dBGB "C"AGED|"Am"cBcd "C"ef (3gfe|"G"dBGB "Am"AGED|"G"EGGF G2:|

%-------------------- TUNE SEPARATOR --------------------%

